src/topics/icons/jruby.svg

<svg height="183" preserveAspectRatio="xMidYMid" viewBox="0 0 257 183" width="257" xmlns="http://www.w3.org/2000/svg"><path d="m253.011 117.358-18.349-6.48-2.224-13.43c-.275-1.668-1.445-3.041-3.035-3.588-1.59-.535-3.348-.173-4.592.968l-22.715 20.981-12.525-26.841c15.612-24.514 23.184-48.918 23.739-50.75.514-1.737-.022-3.605-1.385-4.789-1.363-1.183-3.293-1.442-4.932-.688l-35.842 16.719-6.481-13.905 12.462-28.726c.76-1.737.357-3.771-1.01-5.091-1.37-1.337-3.404-1.678-5.128-.877l-168.277 78.479c-1.575.729-2.603 2.285-2.655 4.017-.041 1.722.875 3.343 2.405 4.164l30.626 16.536 23.679 50.785c.518 1.091 1.441 1.944 2.577 2.36l69.452 25.344c.506.186 1.039.281 1.572.281.655 0 1.318-.147 1.929-.427l121.13-56.58c1.676-.789 2.716-2.514 2.622-4.372-.085-1.855-1.292-3.475-3.043-4.09" fill="#4a0000"/><path d="m226.066 115.042-1.274-7.732-18.636 17.22 5.109 10.949 28.16-13.21-10.365-3.659c-1.564-.553-2.715-1.928-2.994-3.568" fill="#ca1f27"/><path d="m40.106 97.435-25.37-13.698 15.616-7.236z" fill="#ffd440"/><path d="m176.644 91.549c.067-.097.134-.181.205-.276 11.862-16.698 19.854-34.718 24.085-45.601l-90.36 42.136c-1.378.635-2.968.551-4.272-.214-1.3-.768-2.134-2.14-2.238-3.643-.008-.203-1.43-19.845-12.451-26.746-5.15-3.229-11.996-3.149-20.301.22l-40.968 19.094 33.929 72.738 65.876 24.047 65.988-30.76c-4.317-6.288-13.903-18.933-26.711-28.005-10.048 10.076-21.906 18.421-35.716 22.752-.455.142-.913.209-1.367.209-1.944 0-3.751-1.257-4.362-3.214-.759-2.408.582-4.982 2.995-5.727 0 0 24.718-6.296 45.668-37.01" fill="#ca1f27"/><path d="m63.863 74.931c-5.69-2.071-11.996.862-14.059 6.554-2.074 5.693.864 11.987 6.551 14.051 5.695 2.08 11.992-.853 14.063-6.555 2.063-5.686-.864-11.979-6.555-14.05" fill="#4a0000"/></svg>

<?xml version="1.0" encoding="UTF-8" standalone="no"?>
<svg width="257px" height="183px" viewBox="0 0 257 183" version="1.1" xmlns="http://www.w3.org/2000/svg" xmlns:xlink="http://www.w3.org/1999/xlink" preserveAspectRatio="xMidYMid">
	<g>
		<path d="M253.011,117.358 L234.662,110.878 L232.438,97.448 C232.163,95.78 230.993,94.407 229.403,93.86 C227.813,93.325 226.055,93.687 224.811,94.828 L202.096,115.809 L189.571,88.968 C205.183,64.454 212.755,40.05 213.31,38.218 C213.824,36.481 213.288,34.613 211.925,33.429 C210.562,32.246 208.632,31.987 206.993,32.741 L171.151,49.46 L164.67,35.555 L177.132,6.829 C177.892,5.092 177.489,3.058 176.122,1.738 C174.752,0.401 172.718,0.06 170.994,0.861 L2.717,79.34 C1.142,80.069 0.114,81.625 0.062,83.357 C0.021,85.079 0.937,86.7 2.467,87.521 L33.093,104.057 L56.772,154.842 C57.29,155.933 58.213,156.786 59.349,157.202 L128.801,182.546 C129.307,182.732 129.84,182.827 130.373,182.827 C131.028,182.827 131.691,182.68 132.302,182.4 L253.432,125.82 C255.108,125.031 256.148,123.306 256.054,121.448 C255.969,119.593 254.762,117.973 253.011,117.358" fill="#4A0000"></path>
		<path d="M226.066,115.042 L224.792,107.31 L206.156,124.53 L211.265,135.479 L239.425,122.269 L229.06,118.61 C227.496,118.057 226.345,116.682 226.066,115.042" fill="#CA1F27"></path>
		<path d="M40.106,97.435 L14.736,83.737 L30.352,76.501 L40.106,97.435" fill="#FFD440"></path>
		<path d="M176.644,91.549 C176.711,91.452 176.778,91.368 176.849,91.273 C188.711,74.575 196.703,56.555 200.934,45.672 L110.574,87.808 C109.196,88.443 107.606,88.359 106.302,87.594 C105.002,86.826 104.168,85.454 104.064,83.951 C104.056,83.748 102.634,64.106 91.613,57.205 C86.463,53.976 79.617,54.056 71.312,57.425 L30.344,76.519 L64.273,149.257 L130.149,173.304 L196.137,142.544 C191.82,136.256 182.234,123.611 169.426,114.539 C159.378,124.615 147.52,132.96 133.71,137.291 C133.255,137.433 132.797,137.5 132.343,137.5 C130.399,137.5 128.592,136.243 127.981,134.286 C127.222,131.878 128.563,129.304 130.976,128.559 C130.976,128.559 155.694,122.263 176.644,91.549" fill="#CA1F27"></path>
		<path d="M63.863,74.931 C58.173,72.86 51.867,75.793 49.804,81.485 C47.73,87.178 50.668,93.472 56.355,95.536 C62.05,97.616 68.347,94.683 70.418,88.981 C72.481,83.295 69.554,77.002 63.863,74.931" fill="#4A0000"></path>
	</g>
</svg>
